assets/images/icons/topic-message-icon.svg

<svg enable-background="new 0 0 30.609 30.609" viewBox="0 0 30.609 30.609" xmlns="http://www.w3.org/2000/svg"><g fill="#c3cfd8"><path d="m5.043 29.233c-.127 0-.255-.029-.375-.085-.305-.145-.5-.453-.5-.79v-4.765h-3.293c-.482.001-.875-.392-.875-.874v-16.574c0-.482.393-.875.875-.875h3.848c.483 0 .875.393.875.875v11.812l12.675.114c.226.002.444.092.605.251l3.819 3.771c.253.249.33.626.195.954-.134.328-.454.542-.809.543l-9.819.002-6.669 5.442c-.157.132-.355.199-.552.199zm-3.293-7.389h3.293c.483 0 .875.392.875.875v3.797l5.483-4.475c.156-.127.351-.196.553-.197l8-.002-2.053-2.025-13.187-.119c-.48-.005-.866-.395-.866-.875v-11.803h-2.098z"/><path d="m25.216 26.68c-.226 0-.447-.087-.614-.252l-6.7-6.612-13.188-.119c-.48-.004-.866-.394-.866-.874v-16.572c0-.483.392-.875.875-.875h25.011c.483 0 .875.392.875.875v16.572c0 .483-.392.875-.875.875h-3.644v6.107c0 .353-.212.672-.537.807-.108.047-.223.068-.337.068zm-19.618-8.723 12.675.114c.226.002.444.092.605.251l5.463 5.392v-4.891c0-.483.392-.875.875-.875h3.644v-14.823h-23.262z"/></g></svg>

<?xml version="1.0" encoding="iso-8859-1"?>
<!-- Generator: Adobe Illustrator 19.1.0, SVG Export Plug-In . SVG Version: 6.00 Build 0)  -->
<svg version="1.1" id="Capa_1" xmlns="http://www.w3.org/2000/svg" xmlns:xlink="http://www.w3.org/1999/xlink" x="0px" y="0px"
	 viewBox="0 0 30.609 30.609" style="enable-background:new 0 0 30.609 30.609;" xml:space="preserve">
<g fill="#c3cfd8">
	<g>
		<path style="fill: #c3cfd8;" d="M5.043,29.233c-0.127,0-0.255-0.029-0.375-0.085c-0.305-0.145-0.5-0.453-0.5-0.79v-4.765H0.875
			C0.393,23.594,0,23.201,0,22.719V6.145C0,5.663,0.393,5.27,0.875,5.27h3.848c0.483,0,0.875,0.393,0.875,0.875v11.812l12.675,0.114
			c0.226,0.002,0.444,0.092,0.605,0.251l3.819,3.771c0.253,0.249,0.33,0.626,0.195,0.954c-0.134,0.328-0.454,0.542-0.809,0.543
			l-9.819,0.002l-6.669,5.442C5.438,29.166,5.24,29.233,5.043,29.233z M1.75,21.844h3.293c0.483,0,0.875,0.392,0.875,0.875v3.797
			l5.483-4.475c0.156-0.127,0.351-0.196,0.553-0.197l8-0.002l-2.053-2.025L4.714,19.698c-0.48-0.005-0.866-0.395-0.866-0.875V7.02
			H1.75V21.844z"/>
	</g>
	<g>
		<path style="fill: #c3cfd8;" d="M25.216,26.68c-0.226,0-0.447-0.087-0.614-0.252l-6.7-6.612L4.714,19.697
			c-0.48-0.004-0.866-0.394-0.866-0.874V2.251c0-0.483,0.392-0.875,0.875-0.875h25.011c0.483,0,0.875,0.392,0.875,0.875v16.572
			c0,0.483-0.392,0.875-0.875,0.875H26.09v6.107c0,0.353-0.212,0.672-0.537,0.807C25.445,26.659,25.33,26.68,25.216,26.68z
			 M5.598,17.957l12.675,0.114c0.226,0.002,0.444,0.092,0.605,0.251l5.463,5.392v-4.891c0-0.483,0.392-0.875,0.875-0.875h3.644
			V3.125H5.598V17.957z"/>
	</g>
</g>
<g>
</g>
<g>
</g>
<g>
</g>
<g>
</g>
<g>
</g>
<g>
</g>
<g>
</g>
<g>
</g>
<g>
</g>
<g>
</g>
<g>
</g>
<g>
</g>
<g>
</g>
<g>
</g>
<g>
</g>
</svg>
